X:1
T:Standin In The Need of Prayer
T:He rose from the dead
T:Copyright 1881 by The Riverside Press
T:Rodeheaver's Plantation Melodies
T:Rodeheaver's Plantation Melodies
T:Rodeheaver's Plantation Melodies
Z:Rodeheaver's Plantation Melodies
%%score [ 1 2 3 4 ]
L:1/8
M:4/4
K:D
V:1 treble nm="Soprano" snm="S."
V:2 treble nm="Alto" snm="A."
V:3 bass nm="Tenor" snm="T."
V:4 bass nm="Bass" snm="B."
V:1
 A | F3 A F3 A | BA G>F E3 G | E3 G E3 G | BA A>^G A3 A | F3 A F3 A | BA G>F EFGA | B3 B A3 G | %8
w: He|rose, He rose *|* * * * * He|rose He rose *|||||
 F2 E2 D3 || A | FAFA F A2 A | BAGF E3 G | EGEG EG z G | BA A>^G A3 A | FAFA FA z A | BAGF EFGA | %16
w: |The|Jews- * cru- ci- fied Him *||||||
 B3 B A3 G | F2 E2 D3!D.C.! |] %18
w: ||
V:2
 F | DDDF DDDF | GF E>D C3 E | CCCE CCCE | GF F>^E F3 F | DDDF DDDD | D2 C>D CDEF | G3 G F3 E | %8
w: He|rose He rose He rose He rose He|rose- * from the dead. He|rose He rose He rose He rose He|rose- * from the dead. He|rose He rose He rose He rose He|rose from the dead- . And the|Lord shall bear His|
 D2 C2 D3 || z | z4 z2 z D | DDCD C3 E | CECE CE z E | GF F>^E F3 F | DFDF DF z D | DDCD CDEF | %16
w: chil- dren home.||and|nail'd Him to the tree. The|Jews- * cru- ci- fied Him, and|nail'd Him to the tree. The|Jews- * cru- ci- fied Him, and|nail'd Him to the tree- . And the|
 G3 G F3 E | D2 C2 D3 |] %18
w: Lord shall bear His|chil- dren home.|
V:3
 z | z A,A, z z A,A,A, | A,2 A,>A, A,2 z2 | z A,A, z z A,A,A, | A,2 A,>A, A,3 z | %5
w: |||||
 z A,A, z z A,A,A, | G,A, A,>A, A,2 A,D | D3 D D3 B, | A,2 G,2 F,3 || z | z4 z2 z A, | %11
w: He rose * * *||||||
 G,A,A,A, A,3 A, | A,A,A,A, A,A, z A, | A,A, A,>A, A,3 A, | A,A,A,A, A,A, z A, | A,A,A,A, A,A,A,D | %16
w: |||||
 D3 D D3 B, | A,2 G,2 F,3 |] %18
w: ||
V:4
 z | z D,D, z z D,D,D, | D,2 D,>D, A,,2 z2 | z A,,A,, z z A,,A,,A,, | A,,2 A,,>A,, D,3 z | %5
 z D,D, z z D,D,F, | G,F, E,>D, A,,D,D,D, | G,,3 G,, D,3 G,, | A,,2 A,,2 D,3 || z | z4 z2 z F, | %11
 G,F,E,D, A,,3 A,, | A,,A,,A,,A,, A,,A,, z A,, | A,,A,, A,,>A,, D,3 D, | D,D,D,D, D,D, z F, | %15
 G,F,E,D, A,,D,D,D, | G,,3 G,, D,3 G,, | A,2 G,2 F,3 |] %18

